src/icons/IconVZD/IconVZD_size_m.svg

<svg width="24" height="24" viewBox="0 0 24 24" fill="none" xmlns="http://www.w3.org/2000/svg">
  <path
    fill-rule="evenodd"
    clip-rule="evenodd"
    d="M12 23C18.0751 23 23 18.0751 23 12C23 5.92487 18.0751 1 12 1C5.92487 1 1 5.92487 1 12C1 18.0751 5.92487 23 12 23ZM17.7626 5.20118C17.581 3.96612 16.2572 3.25818 15.1292 3.79302L13.5913 4.52225C13.0404 4.78344 12.3965 4.75768 11.8683 4.45332L10.3959 3.60497C9.32228 2.98635 7.95546 3.57254 7.66359 4.77678L7.24822 6.49062C7.10658 7.07502 6.69079 7.55468 6.13242 7.77783L4.49637 8.43167C3.35051 8.88961 2.96155 10.317 3.71667 11.2929L4.77736 12.6638C5.14758 13.1423 5.26155 13.7711 5.08282 14.3491L4.56968 16.0085C4.20171 17.1984 5.08613 18.4061 6.3316 18.4145L7.42703 18.4218C7.62598 18.5047 7.83681 18.5712 8.05871 18.619L8.15453 18.6396C8.65756 18.7478 9.07271 19.1012 9.25986 19.5805L9.31151 19.7128C10.2562 22.1322 13.4009 22.7393 15.1783 20.8454L15.3672 20.6442C15.7096 20.2793 16.2086 20.1045 16.7039 20.176L16.9771 20.2155C19.5477 20.5866 21.6265 18.1501 20.8553 15.67L20.8131 15.5344C20.6603 15.0431 20.7643 14.5079 21.0899 14.1094L21.1519 14.0335C22.1753 12.7812 22.1663 11.1375 21.4126 9.9238C21.2804 9.63398 21.0725 9.37493 20.7951 9.18027C20.3567 8.78059 19.805 8.48336 19.1595 8.34446L19.151 8.34263L19.0241 8.27987C18.4777 8.00957 18.0987 7.48831 18.01 6.88516L17.7626 5.20118ZM20.3775 13.4007C21.5755 11.9347 20.8001 9.72035 18.9491 9.32207L18.8533 9.30146C18.022 9.1226 17.336 8.5386 17.0268 7.74658L16.9751 7.61429C16.2979 5.87975 14.0433 5.44449 12.7691 6.80227L12.5801 7.00357C12.0143 7.6065 11.1898 7.89527 10.3714 7.77711L10.0982 7.73766C8.25522 7.47156 6.76483 9.21837 7.31775 10.9964L7.35992 11.1321C7.61239 11.944 7.44064 12.8284 6.90262 13.4867L6.84061 13.5626C5.64255 15.0287 6.41803 17.243 8.26902 17.6413L8.36483 17.6619C9.19606 17.8408 9.88208 18.4248 10.1913 19.2168L10.243 19.3491C10.9202 21.0836 13.1748 21.5189 14.449 20.1611L14.638 19.9598C15.2038 19.3569 16.0283 19.0681 16.8467 19.1863L17.1199 19.2257C18.9629 19.4918 20.4533 17.745 19.9003 15.9669L19.8582 15.8313C19.6057 15.0194 19.7775 14.135 20.3155 13.4766L20.3775 13.4007Z"
    fill="black"
  />
</svg>

<svg viewBox="0 0 24 24" xmlns="http://www.w3.org/2000/svg">
  <path
    fill-rule="evenodd"
    clip-rule="evenodd"
    d="M12 23c6.075 0 11-4.925 11-11S18.075 1 12 1 1 5.925 1 12s4.925 11 11 11zm5.763-17.799a1.857 1.857 0 00-2.634-1.408l-1.538.73a1.857 1.857 0 01-1.723-.07l-1.472-.848a1.857 1.857 0 00-2.732 1.172L7.248 6.49a1.857 1.857 0 01-1.116 1.287l-1.636.654a1.857 1.857 0 00-.78 2.86l1.061 1.372c.37.478.485 1.107.306 1.685l-.513 1.66a1.857 1.857 0 001.762 2.405l1.095.008c.199.083.41.15.632.197l.096.02c.503.109.918.462 1.105.942l.052.132c.944 2.42 4.089 3.026 5.866 1.132l.19-.2c.342-.366.84-.54 1.336-.469l.273.04c2.57.37 4.65-2.066 3.878-4.546l-.042-.136a1.533 1.533 0 01.277-1.425l.062-.075c1.023-1.253 1.014-2.897.26-4.11a1.837 1.837 0 00-.617-.744c-.438-.4-.99-.697-1.636-.836l-.008-.001-.127-.063a1.858 1.858 0 01-1.014-1.395l-.247-1.684zm2.614 8.2c1.199-1.466.423-3.68-1.428-4.079l-.096-.02a2.533 2.533 0 01-1.826-1.555l-.052-.133c-.677-1.734-2.932-2.17-4.206-.812l-.189.202a2.533 2.533 0 01-2.209.773l-.273-.04c-1.843-.265-3.333 1.481-2.78 3.26l.042.135c.252.812.08 1.696-.457 2.355l-.062.076c-1.198 1.466-.423 3.68 1.428 4.078l.096.02a2.533 2.533 0 011.826 1.556l.052.132c.677 1.735 2.932 2.17 4.206.812l.189-.201a2.533 2.533 0 012.209-.774l.273.04c1.843.266 3.333-1.481 2.78-3.26l-.042-.135a2.533 2.533 0 01.457-2.354l.063-.076z"
  />
</svg>
